src/assets/FAQ.svg

<svg viewBox="0 0 24 24" fill="none" xmlns="http://www.w3.org/2000/svg">
  <g clip-path="url(#clip0_205_4547)">
    <path
      d="M11.0262 7.48857C10.878 7.62 10.8 7.79088 10.8 7.99999C10.8 8.66273 10.2627 9.19999 9.6 9.19999C8.93726 9.19999 8.4 8.66273 8.4 7.99999C8.4 7.11778 8.76202 6.28866 9.43382 5.69292C10.1007 5.10151 11.0007 4.79999 12 4.79999C12.9993 4.79999 13.8993 5.10151 14.5662 5.69292C15.238 6.28866 15.6 7.11778 15.6 7.99999C15.6 8.62228 15.4573 9.1444 15.1901 9.60592C14.9479 10.0241 14.6253 10.3468 14.3929 10.5791L14.345 10.627C13.8943 11.0772 13.468 11.503 13.1236 12.4213C12.8909 13.0419 12.1992 13.3563 11.5787 13.1236C10.9581 12.8909 10.6437 12.1992 10.8764 11.5786C11.4042 10.1713 12.1315 9.44538 12.6393 8.93854L12.689 8.88897C12.9436 8.63434 13.0482 8.51545 13.113 8.40344C13.1552 8.33059 13.2 8.2277 13.2 7.99999C13.2 7.79088 13.122 7.62 12.9738 7.48857C12.8207 7.35281 12.5207 7.19999 12 7.19999C11.4793 7.19999 11.1793 7.35281 11.0262 7.48857Z"
      fill="currentColor" />
    <path
      d="M13.2 15.8C13.2 16.4627 12.6627 17 12 17C11.3373 17 10.8 16.4627 10.8 15.8C10.8 15.1373 11.3373 14.6 12 14.6C12.6627 14.6 13.2 15.1373 13.2 15.8Z"
      fill="currentColor" />
    <path fill-rule="evenodd" clip-rule="evenodd"
      d="M12 21.4C18.6274 21.4 24 16.699 24 10.9C24 5.101 18.6274 0.399994 12 0.399994C5.37258 0.399994 0 5.101 0 10.9C0 13.7025 1.25476 16.2485 3.29954 18.1315C3.60819 18.4157 3.8 18.8094 3.8 19.229V22.1256C3.8 23.1685 4.89945 23.8453 5.8306 23.3755L9.63232 21.4576C9.88889 21.3281 10.1789 21.2829 10.4645 21.3148C10.9672 21.371 11.4798 21.4 12 21.4ZM21.6 10.9C21.6 15.0825 17.613 19 12 19C11.5689 19 11.1454 18.976 10.731 18.9297C10.0229 18.8505 9.25911 18.9577 8.55129 19.3148L6.2 20.5011V19.229C6.2 18.066 5.67131 17.053 4.92529 16.366C3.31436 14.8825 2.4 12.9546 2.4 10.9C2.4 6.7175 6.38701 2.79999 12 2.79999C17.613 2.79999 21.6 6.7175 21.6 10.9Z"
      fill="currentColor" />
  </g>
  <defs>
    <clipPath id="clip0_205_4547">
      <rect width="24" height="24" fill="white" />
    </clipPath>
  </defs>
</svg>

<svg xmlns="http://www.w3.org/2000/svg" fill="none" viewBox="0 0 24 24"><g fill="currentColor" clip-path="url(#a)"><path d="M11.026 7.489A.656.656 0 0 0 10.8 8a1.2 1.2 0 0 1-2.4 0c0-.882.362-1.711 1.034-2.307C10.1 5.102 11 4.8 12 4.8c1 0 1.9.302 2.566.893A3.054 3.054 0 0 1 15.6 8c0 .622-.143 1.144-.41 1.606-.242.418-.565.74-.797.973l-.048.048c-.45.45-.877.876-1.221 1.794a1.2 1.2 0 1 1-2.248-.842c.528-1.408 1.256-2.134 1.763-2.64l.05-.05c.255-.255.36-.374.424-.486.042-.072.087-.175.087-.403 0-.21-.078-.38-.226-.511C12.82 7.353 12.52 7.2 12 7.2c-.52 0-.82.153-.974.289M13.2 15.8a1.2 1.2 0 1 1-2.4 0 1.2 1.2 0 0 1 2.4 0"/><path fill-rule="evenodd" d="M12 21.4c6.627 0 12-4.701 12-10.5S18.627.4 12 .4 0 5.101 0 10.9c0 2.803 1.255 5.349 3.3 7.231.308.285.5.678.5 1.098v2.897a1.4 1.4 0 0 0 2.03 1.25l3.802-1.918a1.48 1.48 0 0 1 .832-.143A13.82 13.82 0 0 0 12 21.4m9.6-10.5c0 4.182-3.987 8.1-9.6 8.1-.431 0-.855-.024-1.269-.07a3.879 3.879 0 0 0-2.18.385L6.2 20.5V19.23a3.902 3.902 0 0 0-1.275-2.863C3.315 14.883 2.4 12.955 2.4 10.9c0-4.182 3.987-8.1 9.6-8.1 5.613 0 9.6 3.918 9.6 8.1" clip-rule="evenodd"/></g><defs><clipPath id="a"><path fill="#fff" d="M0 0h24v24H0z"/></clipPath></defs></svg>
